X: 11
T:Cameronian's Rant. WCa.11
M:C|
Q:200
S:Wm. Calvert MS, 1812, Leyburn, Yorks.
R:Reel
O:England
A:North Yorkshire
Z:vmp.Chris Partington, May 2003
K:G
|:BG G/G/G BGBG|BG G/G/G dBdB|cA A/A/A cAcA|cA A/A/A ecc2::!
Ggga gedB|Ggga gedB|Aaab agfe|Aaab agfe|!
Ggga gedB|Ggga gedg|f/g/a eg f/g/a eg|f/g/a eg fdd2:||
